packages/icons/svg/Payment_Cards_Monochrome_Gift_32px.svg

<svg xmlns="http://www.w3.org/2000/svg" viewBox="0 0 32 32"><path d="M27 25H5a2 2 0 01-2-2V9a2 2 0 012-2h22a2 2 0 012 2v14a2 2 0 01-2 2zM5 8a1 1 0 00-1 1v14a1 1 0 001 1h22a1 1 0 001-1V9a1 1 0 00-1-1z"/><path d="M20.5 13h-.88A2.24 2.24 0 0016 10.35 2.25 2.25 0 0012.38 13h-.88a.5.5 0 00-.5.5v8a.5.5 0 00.5.5h9a.5.5 0 00.5-.5v-8a.5.5 0 00-.5-.5zm-.5 4h-3.5v-3H20zm-2.25-6.5a1.25 1.25 0 010 2.5H16.5v-1.25a1.25 1.25 0 011.25-1.25zM13 11.75a1.25 1.25 0 012.5 0V13h-1.25A1.25 1.25 0 0113 11.75zM14.25 14h1.25v3H12v-3zM12 18h3.5v3H12zm4.5 3v-3H20v3z"/></svg>

<svg xmlns="http://www.w3.org/2000/svg" viewBox="0 0 32 32"><defs></defs><g id="Icon"><path  d="M27,25H5a2,2,0,0,1-2-2V9A2,2,0,0,1,5,7H27a2,2,0,0,1,2,2V23A2,2,0,0,1,27,25ZM5,8A1,1,0,0,0,4,9V23a1,1,0,0,0,1,1H27a1,1,0,0,0,1-1V9a1,1,0,0,0-1-1Z"/><path  d="M20.5,13h-.88A2.24,2.24,0,0,0,16,10.35,2.25,2.25,0,0,0,12.38,13H11.5a.5.5,0,0,0-.5.5v8a.5.5,0,0,0,.5.5h9a.5.5,0,0,0,.5-.5v-8A.5.5,0,0,0,20.5,13ZM20,17H16.5V14H20Zm-2.25-6.5a1.25,1.25,0,0,1,0,2.5H16.5V11.75A1.25,1.25,0,0,1,17.75,10.5ZM13,11.75a1.25,1.25,0,0,1,2.5,0V13H14.25A1.25,1.25,0,0,1,13,11.75ZM14.25,14H15.5v3H12V14ZM12,18h3.5v3H12Zm4.5,3V18H20v3Z"/></g></svg>
